X: 29781
T: O'Beirne's
R: hornpipe
M: 4/4
K: Dmajor
(3ABc|d>cd>f e>cA>F|G>AB>G A>FD>f|g>ef>d e>dc>d|(3efe (3dcB A>DF>A|
d>ef>d c>eA>F|G>AB>G A>GF>E|D>dc>B (3ABA (3GFE|(3DED C>E D2:|
(3Bcd|e2 e>f f>gg>a|b>ga>f g>fe>f|g>ef>d e>dc>d|(3efe (3dcB A>DF>A|
d>ef>d c>eA>F|G>AB>G A>GF>E|D>dc>B (3ABA (3GFE|(3DED C>E D2:|

